src/ui/Svg/optimized/subid.svg

<?xml version="1.0" standalone="no"?>
<!DOCTYPE svg PUBLIC "-//W3C//DTD SVG 1.1//EN" "http://www.w3.org/Graphics/SVG/1.1/DTD/svg11.dtd">
<svg class="icon" version="1.1" viewBox="0 0 1024 1024" fill="currentColor" aria-hidden="true">
  <path d="M551.90414187 625.34087147c73.18186667 0 105.80423147-45.14702187 105.80423146-113.34087147s-32.5859552-113.34087147-105.80423146-113.34087147h-49.6253152v226.68174294h49.6253152zM948.90666667 512c0-241.28170667-195.62496-436.90666667-436.90666667-436.90666667S75.09333333 270.71829333 75.09333333 512s195.62496 436.90666667 436.90666667 436.90666667 436.90666667-195.62496 436.90666667-436.90666667zM293.54666667 329.9555552h68.9584352v364.0888896H293.54666667V329.9555552z m436.90666666 182.0444448c0 105.62218667-62.36842667 182.0444448-176.65592853 182.0444448h-120.47701333V329.9555552h120.47701333C668.1213152 329.9555552 730.45333333 406.37781333 730.45333333 512z"/>
</svg>

<svg xmlns="http://www.w3.org/2000/svg" class="icon" viewBox="0 0 1024 1024" fill="currentColor" aria-hidden="true">
  <path d="M551.904 625.34c73.182 0 105.804-45.146 105.804-113.34s-32.586-113.34-105.804-113.34H502.28v226.68h49.625zM948.907 512c0-241.282-195.625-436.907-436.907-436.907S75.093 270.718 75.093 512 270.718 948.907 512 948.907 948.907 753.282 948.907 512zm-655.36-182.044h68.958v364.088h-68.958V329.956zM730.453 512c0 105.622-62.368 182.044-176.656 182.044H433.32V329.956h120.477c114.324 0 176.656 76.422 176.656 182.044z"/>
</svg>
